shader_type canvas_item;

uniform float flash : hint_range(0.0, 1.0, 0.1) = 0.0;

void fragment() {
	// Called for every pixel the material is visible on.
	vec4 tex = texture(TEXTURE, UV);
	tex.rgb = mix(tex.rgb, vec3(1.0), flash);
	COLOR = tex;
}
